app/src/assets/icons/website/presentation.svg

<svg xmlns="http://www.w3.org/2000/svg" viewBox="0 0 24 24" width="512" height="512"><path d="M3 18h4.382l-1.277 2.553a1 1 0 001.79.894L9.618 18H11v2a1 1 0 002 0v-2h1.382l1.723 3.447a1 1 0 101.79-.894L16.618 18H21a1 1 0 001-1V5a1 1 0 00-1-1h-8V3a1 1 0 00-2 0v1H3a1 1 0 00-1 1v12a1 1 0 001 1zM4 6h16v10H4z"/><path d="M8 10a1 1 0 00-1 1v2a1 1 0 002 0v-2a1 1 0 00-1-1zM12 9a1 1 0 00-1 1v3a1 1 0 002 0v-3a1 1 0 00-1-1zM16 8a1 1 0 00-1 1v4a1 1 0 002 0V9a1 1 0 00-1-1z"/></svg>

<?xml version="1.0"?>
<svg xmlns="http://www.w3.org/2000/svg" viewBox="0 0 24 24" width="512" height="512"><path d="M3,18H7.382L6.105,20.553a1,1,0,0,0,1.79.894L9.618,18H11v2a1,1,0,0,0,2,0V18h1.382l1.723,3.447a1,1,0,1,0,1.79-.894L16.618,18H21a1,1,0,0,0,1-1V5a1,1,0,0,0-1-1H13V3a1,1,0,0,0-2,0V4H3A1,1,0,0,0,2,5V17A1,1,0,0,0,3,18ZM4,6H20V16H4Z"/><path d="M8,10a1,1,0,0,0-1,1v2a1,1,0,0,0,2,0V11A1,1,0,0,0,8,10Z"/><path d="M12,9a1,1,0,0,0-1,1v3a1,1,0,0,0,2,0V10A1,1,0,0,0,12,9Z"/><path d="M16,8a1,1,0,0,0-1,1v4a1,1,0,0,0,2,0V9A1,1,0,0,0,16,8Z"/></svg>
